Papirus-GTK/48x48/apps/gshutdown.svg

<svg height="48" viewBox="0 0 48 48.000001" width="48" xmlns="http://www.w3.org/2000/svg"><circle cx="24" cy="23.999983" fill="#4d4d4d" r="20"/><circle cx="24" cy="24.999983" opacity=".2" r="17.000017"/><circle cx="24" cy="23.999983" fill="#cb4444" r="17.000017"/><path d="m24 14a11 11 0 0 0 -.410156.019 11 11 0 0 1  .599609-.014 11 11 0 0 0 -.189453 0zm .464844.016a11 11 0 0 1  .625.049 11 11 0 0 0 -.625-.049zm-1.400391.031a11 11 0 0 0 -.5625.068 11 11 0 0 1  .5625-.068zm2.568359.084a11 11 0 0 1  .560547.1015 11 11 0 0 0 -.560547-.1015zm-3.667968.064a11 11 0 0 0 -.513672.1172 11 11 0 0 1  .513672-.1172zm4.726562.1485a11 11 0 0 1  .56836.1621 11 11 0 0 0 -.56836-.1621zm-5.810547.1152a11 11 0 0 0 -.478515.1601 11 11 0 0 1  .478515-.1601zm6.9375.2324a11 11 0 0 1  .296875.1133 11 11 0 0 0 -.296875-.1133zm-7.814453.072a11 11 0 0 0 -7.003906 10.2369 11 11 0 0 0  11 11 11 11 0 0 0  11-11 11 11 0 0 0 -6.673828-10.0996l-.783203 1.8301a9.0000172 9.0000172 0 0 1 5.457031 8.2695 9.0000172 9.0000172 0 0 1 -9 9 9.0000172 9.0000172 0 0 1 -9-9 9.0000172 9.0000172 0 0 1  5.726562-8.3828l-.722656-1.8535z" opacity=".2"/><path d="m24 13a11 11 0 0 0 -.410156.01953 11 11 0 0 1  .599609-.01367 11 11 0 0 0 -.189453-.00586zm.464844.01563a11 11 0 0 1  .625.04883 11 11 0 0 0 -.625-.04883zm-1.400391.03125a11 11 0 0 0 -.5625.06836 11 11 0 0 1  .5625-.06836zm2.568359.08398a11 11 0 0 1  .560547.101563 11 11 0 0 0 -.560547-.101563zm-3.667968.06445a11 11 0 0 0 -.513672.117188 11 11 0 0 1  .513672-.117188zm4.726562.148438a11 11 0 0 1  .56836.162109 11 11 0 0 0 -.56836-.162109zm-5.810547.115234a11 11 0 0 0 -.478515.160157 11 11 0 0 1  .478515-.160157zm6.9375.232422a11 11 0 0 1  .296875.113282 11 11 0 0 0 -.296875-.113282zm-7.814453.07227a11 11 0 0 0 -7.003906 10.236326 11 11 0 0 0  11 11 11 11 0 0 0  11-11 11 11 0 0 0 -6.673828-10.099609l-.783203 1.830078a9.0000172 9.0000172 0 0 1 5.457031 8.269531 9.0000172 9.0000172 0 0 1 -9 9 9.0000172 9.0000172 0 0 1 -9-9 9.0000172 9.0000172 0 0 1  5.726562-8.382812l-.722656-1.853516z" fill="#fff"/><path d="m23 11.499983h2v8.9999657h-2z" opacity=".3"/><path d="m23 10.999983h2v8.9999657h-2z" fill="#fff"/><path d="m24 4a20 20 0 0 0 -19.859375 17.851562 20 18.999983 0 0 1  19.859375-16.851562 20 18.999983 0 0 1  19.921875 17.447266 20 20 0 0 0 -19.921875-18.447266zm19.921875 18.447266a20 20 0 0 1  .078125 1.552734 20 18.999983 0 0 0 -.078125-1.552734zm-39.78125-.595704a20 18.999983 0 0 0 -.048828.392579 20 20 0 0 1  .048828-.392579zm-.048828.392579a20 20 0 0 0 -.091797 1.755859 20 18.999983 0 0 1  .0917969-1.755859z" fill="#fff" opacity=".2"/><path d="m24 44a20 20 0 0 1 -19.859375-17.8516 20 18.999983 0 0 0  19.859375 16.8516 20 18.999983 0 0 0  19.921875-17.4473 20 20 0 0 1 -19.921875 18.4473zm19.921875-18.4473a20 20 0 0 0  .078125-1.5527 20 18.999983 0 0 1 -.07813 1.5527zm-39.78125.5957a20 18.999983 0 0 1 -.048828-.3925 20 20 0 0 0  .048828.3925zm-.048828-.3925a20 20 0 0 1 -.091797-1.7559 20 18.999983 0 0 0  .091797 1.7559z" opacity=".3"/></svg>

<?xml version="1.0" encoding="UTF-8" standalone="no"?>
<svg
   xmlns:dc="http://purl.org/dc/elements/1.1/"
   xmlns:cc="http://creativecommons.org/ns#"
   xmlns:rdf="http://www.w3.org/1999/02/22-rdf-syntax-ns#"
   xmlns:svg="http://www.w3.org/2000/svg"
   xmlns="http://www.w3.org/2000/svg"
   xmlns:sodipodi="http://sodipodi.sourceforge.net/DTD/sodipodi-0.dtd"
   xmlns:inkscape="http://www.inkscape.org/namespaces/inkscape"
   version="1.1"
   id="svg2"
   viewBox="0 0 48 48.000001"
   height="48"
   width="48"
   inkscape:version="0.91 r13725"
   sodipodi:docname="gshutdown.svg">
  <sodipodi:namedview
     pagecolor="#ffffff"
     bordercolor="#666666"
     borderopacity="1"
     objecttolerance="10"
     gridtolerance="10"
     guidetolerance="10"
     inkscape:pageopacity="0"
     inkscape:pageshadow="2"
     inkscape:window-width="1600"
     inkscape:window-height="849"
     id="namedview16"
     showgrid="false"
     inkscape:zoom="5.33"
     inkscape:cx="-8.3389831"
     inkscape:cy="24"
     inkscape:window-x="0"
     inkscape:window-y="0"
     inkscape:window-maximized="1"
     inkscape:current-layer="svg2" />
  <defs
     id="defs4" />
  <metadata
     id="metadata7">
    <rdf:RDF>
      <cc:Work
         rdf:about="">
        <dc:format>image/svg+xml</dc:format>
        <dc:type
           rdf:resource="http://purl.org/dc/dcmitype/StillImage" />
        <dc:title></dc:title>
      </cc:Work>
    </rdf:RDF>
  </metadata>
  <circle
     style="opacity:1;fill:#4d4d4d;fill-opacity:1;stroke:none;stroke-width:10;stroke-miterlimit:4;stroke-dasharray:none;stroke-opacity:1"
     id="path4136"
     cx="24"
     cy="23.999983"
     r="20" />
  <circle
     style="opacity:0.2;fill:#000000;fill-opacity:1;stroke:none;stroke-width:10;stroke-miterlimit:4;stroke-dasharray:none;stroke-opacity:1"
     id="circle4154"
     cx="24"
     cy="24.999983"
     r="17.000017" />
  <circle
     r="17.000017"
     cy="23.999983"
     cx="24"
     id="circle4138"
     style="opacity:1;fill:#cb4444;fill-opacity:1;stroke:none;stroke-width:10;stroke-miterlimit:4;stroke-dasharray:none;stroke-opacity:1" />
  <path
     inkscape:connector-curvature="0"
     id="path4178"
     d="m 24,14 a 11,11 0 0 0 -0.410156,0.019 11,11 0 0 1 0.599609,-0.014 11,11 0 0 0 -0.189453,0 z m 0.464844,0.016 a 11,11 0 0 1 0.625,0.049 11,11 0 0 0 -0.625,-0.049 z m -1.400391,0.031 a 11,11 0 0 0 -0.5625,0.068 11,11 0 0 1 0.5625,-0.068 z m 2.568359,0.084 a 11,11 0 0 1 0.560547,0.1015 11,11 0 0 0 -0.560547,-0.1015 z m -3.667968,0.064 a 11,11 0 0 0 -0.513672,0.1172 11,11 0 0 1 0.513672,-0.1172 z m 4.726562,0.1485 a 11,11 0 0 1 0.56836,0.1621 11,11 0 0 0 -0.56836,-0.1621 z m -5.810547,0.1152 a 11,11 0 0 0 -0.478515,0.1601 11,11 0 0 1 0.478515,-0.1601 z m 6.9375,0.2324 a 11,11 0 0 1 0.296875,0.1133 11,11 0 0 0 -0.296875,-0.1133 z m -7.814453,0.072 A 11,11 0 0 0 13,25 11,11 0 0 0 24,36 11,11 0 0 0 35,25 11,11 0 0 0 28.326172,14.9004 l -0.783203,1.8301 A 9.0000172,9.0000172 0 0 1 33,25 a 9.0000172,9.0000172 0 0 1 -9,9 9.0000172,9.0000172 0 0 1 -9,-9 9.0000172,9.0000172 0 0 1 5.726562,-8.3828 l -0.722656,-1.8535 z"
     style="opacity:0.2;fill:#000000;fill-opacity:1;stroke:none;stroke-width:10;stroke-miterlimit:4;stroke-dasharray:none;stroke-opacity:1" />
  <path
     inkscape:connector-curvature="0"
     style="opacity:1;fill:#ffffff;fill-opacity:1;stroke:none;stroke-width:10;stroke-miterlimit:4;stroke-dasharray:none;stroke-opacity:1"
     d="M 24,13 A 11,11 0 0 0 23.589844,13.01953 11,11 0 0 1 24.189453,13.00586 11,11 0 0 0 24,13 Z m 0.464844,0.01563 a 11,11 0 0 1 0.625,0.04883 11,11 0 0 0 -0.625,-0.04883 z m -1.400391,0.03125 a 11,11 0 0 0 -0.5625,0.06836 11,11 0 0 1 0.5625,-0.06836 z m 2.568359,0.08398 a 11,11 0 0 1 0.560547,0.101563 11,11 0 0 0 -0.560547,-0.101563 z m -3.667968,0.06445 a 11,11 0 0 0 -0.513672,0.117188 11,11 0 0 1 0.513672,-0.117188 z m 4.726562,0.148438 a 11,11 0 0 1 0.56836,0.162109 11,11 0 0 0 -0.56836,-0.162109 z m -5.810547,0.115234 a 11,11 0 0 0 -0.478515,0.160157 11,11 0 0 1 0.478515,-0.160157 z m 6.9375,0.232422 a 11,11 0 0 1 0.296875,0.113282 11,11 0 0 0 -0.296875,-0.113282 z m -7.814453,0.07227 A 11,11 0 0 0 13,24 11,11 0 0 0 24,35 11,11 0 0 0 35,24 11,11 0 0 0 28.326172,13.900391 l -0.783203,1.830078 A 9.0000172,9.0000172 0 0 1 33,24 a 9.0000172,9.0000172 0 0 1 -9,9 9.0000172,9.0000172 0 0 1 -9,-9 9.0000172,9.0000172 0 0 1 5.726562,-8.382812 l -0.722656,-1.853516 z"
     id="circle4142" />
  <rect
     y="11.499983"
     x="23"
     height="8.9999657"
     width="2"
     id="rect4176"
     style="opacity:0.3;fill:#000000;fill-opacity:1;stroke:none;stroke-width:10;stroke-miterlimit:4;stroke-dasharray:none;stroke-opacity:1" />
  <rect
     style="opacity:1;fill:#ffffff;fill-opacity:1;stroke:none;stroke-width:10;stroke-miterlimit:4;stroke-dasharray:none;stroke-opacity:1"
     id="rect4154"
     width="2"
     height="8.9999657"
     x="23"
     y="10.999983" />
  <path
     inkscape:connector-curvature="0"
     style="opacity:0.2;fill:#ffffff;fill-opacity:1;stroke:none;stroke-width:10;stroke-miterlimit:4;stroke-dasharray:none;stroke-opacity:1"
     d="M 24,4 A 20,20 0 0 0 4.140625,21.851562 20,18.999983 0 0 1 24,5 20,18.999983 0 0 1 43.921875,22.447266 20,20 0 0 0 24,4 Z M 43.921875,22.447266 A 20,20 0 0 1 44,24 20,18.999983 0 0 0 43.921875,22.447266 Z M 4.140625,21.851562 A 20,18.999983 0 0 0 4.091797,22.244141 20,20 0 0 1 4.140625,21.851562 Z M 4.091797,22.244141 A 20,20 0 0 0 4,24 20,18.999983 0 0 1 4.0917969,22.244141 Z"
     id="circle4156" />
  <path
     inkscape:connector-curvature="0"
     id="path4164"
     d="M 24,44 A 20,20 0 0 1 4.140625,26.1484 20,18.999983 0 0 0 24,43 20,18.999983 0 0 0 43.921875,25.5527 20,20 0 0 1 24,44 Z M 43.921875,25.5527 A 20,20 0 0 0 44,24 20,18.999983 0 0 1 43.92187,25.5527 Z M 4.140625,26.1484 A 20,18.999983 0 0 1 4.091797,25.7559 20,20 0 0 0 4.140625,26.1484 Z M 4.091797,25.7559 A 20,20 0 0 1 4,24 20,18.999983 0 0 0 4.091797,25.7559 Z"
     style="opacity:0.3;fill:#000000;fill-opacity:1;stroke:none;stroke-width:10;stroke-miterlimit:4;stroke-dasharray:none;stroke-opacity:1" />
</svg>
